public/assets/img/icon/service-icon_2-2.svg

<svg width="52" height="55" viewBox="0 0 52 55" fill="none" xmlns="http://www.w3.org/2000/svg">
<path d="M16.6964 27.5C16.1543 27.5 15.7143 27.94 15.7143 28.4821V49.1071H0.982143C0.44 49.1071 0 49.5471 0 50.0893C0 50.6314 0.44 51.0714 0.982143 51.0714H15.7143V53.0357H12.7679C12.2257 53.0357 11.7857 53.4757 11.7857 54.0179C11.7857 54.56 12.2257 55 12.7679 55H30.4464C30.9886 55 31.4286 54.56 31.4286 54.0179C31.4286 53.4757 30.9886 53.0357 30.4464 53.0357H27.5V45.1786H41.25V53.0357H40.2679C39.7257 53.0357 39.2857 53.4757 39.2857 54.0179C39.2857 54.56 39.7257 55 40.2679 55H48.125C48.6671 55 49.1071 54.56 49.1071 54.0179C49.1071 53.4757 48.6671 53.0357 48.125 53.0357H47.1429V45.1786H50.0893C50.6314 45.1786 51.0714 44.7386 51.0714 44.1964V40.2679C51.0714 39.7257 50.6314 39.2857 50.0893 39.2857H48.9264C49.0364 38.9773 49.1071 38.6493 49.1071 38.3036C49.1071 36.6791 47.7852 35.3571 46.1607 35.3571H27.5V28.4821C27.5 27.94 27.06 27.5 26.5179 27.5H25.5357V2.80107L33.8034 2.21571C33.548 2.73429 33.3929 3.31179 33.3929 3.92857C33.3929 6.09518 35.1548 7.85714 37.3214 7.85714C38.0404 7.85714 38.7063 7.64893 39.2857 7.31107V15.9755L30.4346 21.2555C29.9691 21.5325 29.8159 22.1355 30.0929 22.603C30.2775 22.9114 30.6036 23.0823 30.9375 23.0823C31.1104 23.0823 31.2832 23.0371 31.4404 22.9429L40.2207 17.7061L45.9191 21.7545C46.092 21.8782 46.2904 21.9352 46.4888 21.9352C46.7952 21.9352 47.0996 21.7918 47.2882 21.5227C47.6025 21.0807 47.4984 20.4679 47.0584 20.1536L41.25 16.0246C41.25 16.0246 41.25 4.00714 41.25 3.92857C41.25 1.76196 39.488 0 37.3214 0C37.3038 0 37.288 0.0058929 37.2704 0.0058929C37.2645 0.0058929 37.2586 0.00392876 37.2527 0.00392876L9.75268 1.96821C9.74482 1.96821 9.73696 1.97411 9.72911 1.97411C7.60768 2.02518 5.89286 3.75768 5.89286 5.89286V27.828L0.681607 29.5114C0.275 29.643 0 30.0202 0 30.4464V46.1607C0 46.7029 0.44 47.1429 0.982143 47.1429H12.7679C13.31 47.1429 13.75 46.7029 13.75 46.1607V30.4464C13.75 30.028 13.4829 29.6548 13.088 29.5173L7.85714 27.718V9.27536C8.43661 9.61321 9.1025 9.82143 9.82143 9.82143C11.988 9.82143 13.75 8.05946 13.75 5.89286C13.75 5.08161 13.5025 4.32536 13.0782 3.69875L17.6786 3.37268V27.5H16.6964ZM17.6786 53.0357V29.4643H25.5357V53.0357H17.6786ZM45.1786 53.0357H43.2143V45.1786H45.1786V53.0357ZM49.1071 43.2143H27.5V41.25H49.1071V43.2143ZM46.1607 37.3214C46.7009 37.3214 47.1429 37.7614 47.1429 38.3036C47.1429 38.8457 46.7009 39.2857 46.1607 39.2857H27.5V37.3214H46.1607ZM39.2857 3.92857C39.2857 5.01089 38.4057 5.89286 37.3214 5.89286C36.2371 5.89286 35.3571 5.01089 35.3571 3.92857C35.3571 2.85018 36.2293 1.97607 37.3057 1.96821L37.3273 1.96625C38.4096 1.97018 39.2857 2.84821 39.2857 3.92857ZM11.7857 39.3132C11.7405 39.3054 11.7012 39.2857 11.6541 39.2857H2.46518C2.27857 39.2857 2.11357 39.3525 1.96429 39.4429V35.2C2.11357 35.2904 2.27857 35.3571 2.46518 35.3571H11.6541C11.7012 35.3571 11.7405 35.3375 11.7857 35.3296V39.3132ZM1.96429 45.1786V41.0929C2.11357 41.1832 2.27857 41.25 2.46518 41.25H11.6541C11.7012 41.25 11.7405 41.2304 11.7857 41.2225V45.1786H1.96429ZM11.7857 33.4204C11.7405 33.4125 11.7012 33.3929 11.6541 33.3929H2.46518C2.27857 33.3929 2.11357 33.4596 1.96429 33.55V31.1614L7.05179 29.5173L11.7857 31.1477V33.4204ZM9.82143 7.85714C8.73714 7.85714 7.85714 6.97518 7.85714 5.89286C7.85714 4.81054 8.73714 3.92857 9.82143 3.92857C10.9057 3.92857 11.7857 4.81054 11.7857 5.89286C11.7857 6.97518 10.9057 7.85714 9.82143 7.85714ZM19.6429 3.23125L23.5714 2.9425V27.5H19.6429V3.23125Z" fill="#F41E1E"/>
</svg>

<?xml version="1.0" encoding="UTF-8"?>
<svg id="Camada_1" data-name="Camada 1" xmlns="http://www.w3.org/2000/svg" viewBox="0 0 51.07 55">
  <defs>
    <style>
      .cls-1 {
        fill: #f1c40f;
      }
    </style>
  </defs>
  <path class="cls-1" d="M16.7,27.5c-.54,0-.98,.44-.98,.98v20.63H.98c-.54,0-.98,.44-.98,.98s.44,.98,.98,.98H15.71v1.96h-2.95c-.54,0-.98,.44-.98,.98s.44,.98,.98,.98H30.45c.54,0,.98-.44,.98-.98s-.44-.98-.98-.98h-2.95v-7.86h13.75v7.86h-.98c-.54,0-.98,.44-.98,.98s.44,.98,.98,.98h7.86c.54,0,.98-.44,.98-.98s-.44-.98-.98-.98h-.98v-7.86h2.95c.54,0,.98-.44,.98-.98v-3.93c0-.54-.44-.98-.98-.98h-1.16c.11-.31,.18-.64,.18-.98,0-1.62-1.32-2.95-2.95-2.95H27.5v-6.88c0-.54-.44-.98-.98-.98h-.98V2.8l8.27-.59c-.26,.52-.41,1.1-.41,1.71,0,2.17,1.76,3.93,3.93,3.93,.72,0,1.38-.21,1.96-.55V15.98l-8.85,5.28c-.47,.28-.62,.88-.34,1.35,.18,.31,.51,.48,.84,.48,.17,0,.35-.05,.5-.14l8.78-5.24,5.7,4.05c.17,.12,.37,.18,.57,.18,.31,0,.61-.14,.8-.41,.31-.44,.21-1.05-.23-1.37l-5.81-4.13V3.93c0-2.17-1.76-3.93-3.93-3.93-.02,0-.03,0-.05,0,0,0-.01,0-.02,0L9.75,1.97s-.02,0-.02,0c-2.12,.05-3.84,1.78-3.84,3.92V27.83l-5.21,1.68c-.41,.13-.68,.51-.68,.93v15.71c0,.54,.44,.98,.98,.98H12.77c.54,0,.98-.44,.98-.98v-15.71c0-.42-.27-.79-.66-.93l-5.23-1.8V9.28c.58,.34,1.25,.55,1.96,.55,2.17,0,3.93-1.76,3.93-3.93,0-.81-.25-1.57-.67-2.19l4.6-.33V27.5h-.98Zm.98,25.54V29.46h7.86v23.57h-7.86Zm27.5,0h-1.96v-7.86h1.96v7.86Zm3.93-9.82H27.5v-1.96h21.61v1.96Zm-2.95-5.89c.54,0,.98,.44,.98,.98s-.44,.98-.98,.98H27.5v-1.96h18.66ZM39.29,3.93c0,1.08-.88,1.96-1.96,1.96s-1.96-.88-1.96-1.96,.87-1.95,1.95-1.96h.02c1.08,0,1.96,.88,1.96,1.96ZM11.79,39.31s-.08-.03-.13-.03H2.47c-.19,0-.35,.07-.5,.16v-4.24c.15,.09,.31,.16,.5,.16H11.65s.09-.02,.13-.03v3.98ZM1.96,45.18v-4.09c.15,.09,.31,.16,.5,.16H11.65s.09-.02,.13-.03v3.96H1.96Zm9.82-11.76s-.08-.03-.13-.03H2.47c-.19,0-.35,.07-.5,.16v-2.39l5.09-1.64,4.73,1.63v2.27Zm-1.96-25.56c-1.08,0-1.96-.88-1.96-1.96s.88-1.96,1.96-1.96,1.96,.88,1.96,1.96-.88,1.96-1.96,1.96ZM19.64,3.23l3.93-.29V27.5h-3.93V3.23Z"/>
</svg>
